X:1
T:Sonntagsmorgen
T:Felix Mendelssohn Bartholdy
T:J. Lange
T:Sonntagsmorgen
T:CPDL - Creative Commons Attribution Non Commercial 3.0
C:Felix Mendelssohn Bartholdy
Z:J. Lange
Z:CPDL - Creative Commons Attribution Non Commercial 3.0
%%score [ ( 1 2 ) ( 3 4 ) ]
L:1/8
Q:1/4=66
M:4/4
K:F
V:1 treble-8 nm="Tenor"
V:2 treble-8 
V:3 bass nm="Bass"
V:4 bass 
V:1
!p!"^Feierlich"!<(! F>F Ac!<)! |!>(! c3 B!>)! !breath!A4 |!mf!!<(! A>A Bc!<)!!f! d2 e2 | %3
w: 1. Fei- er- li- cher|Glo- cken- klang,|fei- er- li- cher Glo- cken-|
w: 2. Erns- ter wird's mir|im Ge- müt,|erns- ter wird's mir im Ge-|
w: 3. Sü- ßes Grau- en|mich um- weht,|sü- ßes Grau- en mich um-|
 !breath!f4!mf! f2!>(! ed!>)! | c3 ^c !>!d2 B2 |!>(! B2 !breath!A2!>)!!pp! A2 A2 | %6
w: klang hal- let _|durch die stil- len|Fel- der, lei- se|
w: müt, wie ich _|bli- cke in die|Wei- te, ob ein|
w: weht, füllt mein *|Aug' mit An- dachts-|trä- nen; Mei- ner|
 A3 A AG!<(! Gd!<)! |!>(! d2 ^c2!>)!!p! A2!<(! A2 | A3!<)!!mf! =c !>!c3!>(! B | %9
w: rau- schen fer- * ne _|Wäl- der ei- nen|heh- ren Lob- ge-|
w: En- gel mir _ zur _|Sei- te be- tend|durch die Au- en|
w: See- le heil'- * ges _|Seh- nen, hebt zu|Gott sich im Ge-|
 !breath!A4!>)!!mf! f2!<(! f2 | f3!<)! a!ff! !>!a3 g |!>(! !fermata!f4!>)! |] %12
w: sang. ei- nen|heh- ren Lob- ge-|sang.|
w: zieht, be- tend|durch die Au- en|zieht.|
w: bet, hebt zu|Gott sich im Ge-|bet.|
V:2
 F>F AA | c3 B A4 | F>F GA B2 c2 | c4 d2 cB | B3 B B2 G2 | G2 F2 G2 G2 | F3 F FE EB | B2 A2 A2 A2 | %8
 A3 A G3 G | A4 A2 B=B | c3 f e3 [ce] | c4 |] %12
V:3
!p!!<(! F,>F, F,F,!<)! |!>(! F,2 G,2!>)! !breath!A,4 |!mf!!<(! A,>A, G,F,!<)!!f! B,2 B,2 | %3
 !breath!A,4!mf! B,2!>(! F,2!>)! | G,3 G, !>!E,2 E,2 |!>(! F,2 !breath!F,2!>)!!pp! E,2 E,2 | %6
 D,3 D, D,2!<(! D,E,!<)! |!>(! E,2 E,2!>)!!p! F,2!<(! F,2 | F,3!<)!!mf! F, !>!E,3!>(! E, | %9
 !breath!F,4!>)!!mf! F,2!<(! F,2 | A,3!<)! C!ff! !>!C3 B, |!>(! !fermata!A,4!>)! |] %12
V:4
 F,>F, F,_E, | D,2 =E,2 F,4 | F,>F, F,F, F,2 F,2 | F,4 B,,2 D,2 | E,3 E, C,2 C,2 | %5
 F,2 F,,2 A,,2 A,,2 | A,,3 A,, B,,2 G,,2 | A,,2 A,,2 D,2 D,2 | =C,3 C, C,3 C, | (F,2 E,2) D,2 D,2 | %10
 C,3 C, C,3 C, | [F,,F,]4 |] %12

